img/triggerTwo.svg

<svg width="42" height="38" viewBox="0 0 42 38" fill="none" xmlns="http://www.w3.org/2000/svg">
<path d="M36.033 11.1681C36.0229 11.1181 36.008 11.0689 35.9885 11.0212C35.9689 10.9743 35.9447 10.929 35.9166 10.8868C35.8877 10.8438 35.8557 10.804 35.8189 10.7681C35.7829 10.7321 35.7432 10.6993 35.7001 10.6712C35.6579 10.6431 35.6127 10.6188 35.5657 10.5993C35.5189 10.5798 35.4697 10.5642 35.4196 10.5548C35.3189 10.5345 35.215 10.5345 35.1142 10.5548C35.0642 10.5642 35.015 10.5798 34.9682 10.5993C34.9213 10.6188 34.876 10.6423 34.833 10.6712C34.7907 10.6993 34.7502 10.7321 34.7143 10.7681C34.6783 10.804 34.6454 10.8438 34.6174 10.8868C34.5892 10.929 34.565 10.9743 34.5455 11.0212C34.526 11.0689 34.5111 11.1181 34.501 11.1681C34.4908 11.2181 34.4854 11.2696 34.4854 11.3204C34.4854 11.3712 34.4908 11.4228 34.501 11.4728C34.5111 11.5228 34.526 11.572 34.5455 11.6189C34.565 11.6665 34.5893 11.7118 34.6174 11.754C34.6454 11.797 34.6783 11.8368 34.7143 11.8728C34.7502 11.9087 34.7908 11.9415 34.833 11.9696C34.8759 11.9978 34.9212 12.022 34.9682 12.0415C35.015 12.061 35.0642 12.0759 35.1142 12.086C35.165 12.0962 35.2158 12.1017 35.2665 12.1017C35.4728 12.1017 35.6736 12.0181 35.8189 11.8728C35.8557 11.8368 35.8877 11.797 35.9166 11.754C35.9447 11.7118 35.9689 11.6665 35.9885 11.6189C36.008 11.572 36.0229 11.5228 36.033 11.4728C36.0432 11.4228 36.0479 11.3712 36.0479 11.3204C36.0479 11.2696 36.0432 11.2181 36.033 11.1681Z" fill="white"/>
<path d="M41.2188 0.108398H2.78125C2.34977 0.108398 2 0.458164 2 0.889648V7.64371C2 8.07519 2.34977 8.42496 2.78125 8.42496H3.8757V37.1103C3.8757 37.5418 4.22547 37.8915 4.65695 37.8915H39.343C39.7745 37.8915 40.1243 37.5418 40.1243 37.1103V8.42496H41.2188C41.6502 8.42496 42 8.07519 42 7.64371V0.889648C42 0.458164 41.6502 0.108398 41.2188 0.108398ZM16.8502 1.6709H27.1498V6.86246H16.8502V1.6709ZM16.8502 8.42496H27.1498V18.6308L25.4091 17.4234C25.1413 17.2377 24.7864 17.2377 24.5187 17.4233L22 19.1695L19.4812 17.4232C19.3473 17.3304 19.1917 17.284 19.0361 17.284C18.8804 17.284 18.7247 17.3305 18.5908 17.4233L16.8502 18.6307V8.42496ZM3.5625 6.86246V1.6709H15.2877V6.86246H3.5625ZM15.2877 8.42496V10.539H5.4382V8.42496H15.2877ZM23.2149 22.5448V36.329H5.4382V12.1014H15.2877V20.1235C15.2877 20.4142 15.4491 20.6808 15.7067 20.8157C15.9643 20.9505 16.2755 20.9311 16.5143 20.7654L19.0362 19.0161L21.5548 20.7622C21.8226 20.9478 22.1774 20.9478 22.4451 20.7622L24.9638 19.0161L27.4857 20.7654C27.6189 20.8578 27.7746 20.9047 27.931 20.9047C28.0549 20.9047 28.1794 20.8752 28.2932 20.8157C28.5508 20.6808 28.7122 20.4142 28.7122 20.1235V12.1014H32.1389C32.5703 12.1014 32.9202 11.7517 32.9202 11.3202C32.9202 10.8887 32.5703 10.5389 32.1389 10.5389H28.7122V8.42488H38.5617V21.7636H23.9962C23.5648 21.7636 23.2149 22.1133 23.2149 22.5448ZM38.5618 36.329H24.7774V23.326H38.5618V36.329ZM40.4375 6.86246H28.7123V1.6709H40.4375V6.86246Z" fill="white"/>
<path d="M37.2022 28.1531C37.0264 26.4143 35.6157 25.1064 33.9102 25.1064C33.0804 25.1064 32.328 25.4402 31.7588 26.0346C31.1429 25.4603 30.3091 25.1064 29.4637 25.1064C27.7731 25.1064 26.4729 26.3579 26.2935 28.1534C26.27 28.3123 26.236 28.7334 26.3899 29.3536C26.6228 30.2903 27.1567 31.1391 27.9397 31.8131L31.1957 34.5604C31.3537 34.695 31.5507 34.7622 31.7477 34.7622C31.9445 34.7622 32.1413 34.6952 32.2993 34.561L35.5614 31.8083C36.3388 31.1398 36.8727 30.291 37.1056 29.3536C37.2598 28.7331 37.2255 28.3118 37.2022 28.1531ZM35.5891 28.9768C35.4348 29.5981 35.0729 30.1675 34.5481 30.6189L31.7477 32.9819L28.9531 30.6239C28.4225 30.1671 28.0606 29.5976 27.9063 28.9768C27.8248 28.6482 27.8334 28.4464 27.8375 28.3959C27.8453 28.3653 27.8428 28.3653 27.8465 28.3251C27.9237 27.5007 28.4536 26.6688 29.4636 26.6688C30.1313 26.6688 30.8092 27.1033 31.0753 27.7019C31.2008 27.9839 31.4806 28.1657 31.7892 28.1657C31.7892 28.1657 31.7893 28.1657 31.7894 28.1657C32.0981 28.1657 32.3779 27.9839 32.5032 27.7017C32.6746 27.316 33.0852 26.6689 33.9102 26.6689C34.8279 26.6689 35.5592 27.3654 35.6491 28.3252C35.6528 28.3653 35.6502 28.3653 35.6581 28.3959C35.6621 28.4464 35.6708 28.6482 35.5891 28.9768Z" fill="white"/>
<path d="M34.033 11.1681C34.0229 11.1181 34.008 11.0689 33.9885 11.0212C33.9689 10.9743 33.9447 10.929 33.9166 10.8868C33.8877 10.8438 33.8557 10.804 33.8189 10.7681C33.7829 10.7321 33.7432 10.6993 33.7001 10.6712C33.6579 10.6431 33.6127 10.6188 33.5657 10.5993C33.5189 10.5798 33.4697 10.5642 33.4196 10.5548C33.3189 10.5345 33.215 10.5345 33.1142 10.5548C33.0642 10.5642 33.015 10.5798 32.9682 10.5993C32.9213 10.6188 32.876 10.6423 32.833 10.6712C32.7907 10.6993 32.7502 10.7321 32.7143 10.7681C32.6783 10.804 32.6454 10.8438 32.6174 10.8868C32.5892 10.929 32.565 10.9743 32.5455 11.0212C32.526 11.0689 32.5111 11.1181 32.501 11.1681C32.4908 11.2181 32.4854 11.2696 32.4854 11.3204C32.4854 11.3712 32.4908 11.4228 32.501 11.4728C32.5111 11.5228 32.526 11.572 32.5455 11.6189C32.565 11.6665 32.5893 11.7118 32.6174 11.754C32.6454 11.797 32.6783 11.8368 32.7143 11.8728C32.7502 11.9087 32.7908 11.9415 32.833 11.9696C32.8759 11.9978 32.9212 12.022 32.9682 12.0415C33.015 12.061 33.0642 12.0759 33.1142 12.086C33.165 12.0962 33.2158 12.1017 33.2665 12.1017C33.4728 12.1017 33.6736 12.0181 33.8189 11.8728C33.8557 11.8368 33.8877 11.797 33.9166 11.754C33.9447 11.7118 33.9689 11.6665 33.9885 11.6189C34.008 11.572 34.0229 11.5228 34.033 11.4728C34.0432 11.4228 34.0479 11.3712 34.0479 11.3204C34.0479 11.2696 34.0432 11.2181 34.033 11.1681Z" fill="#333333"/>
<path d="M39.2188 0.108398H0.78125C0.349766 0.108398 0 0.458164 0 0.889648V7.64371C0 8.07519 0.349766 8.42496 0.78125 8.42496H1.8757V37.1103C1.8757 37.5418 2.22547 37.8915 2.65695 37.8915H37.343C37.7745 37.8915 38.1243 37.5418 38.1243 37.1103V8.42496H39.2188C39.6502 8.42496 40 8.07519 40 7.64371V0.889648C40 0.458164 39.6502 0.108398 39.2188 0.108398ZM14.8502 1.6709H25.1498V6.86246H14.8502V1.6709ZM14.8502 8.42496H25.1498V18.6308L23.4091 17.4234C23.1413 17.2377 22.7864 17.2377 22.5187 17.4233L20 19.1695L17.4812 17.4232C17.3473 17.3304 17.1917 17.284 17.0361 17.284C16.8804 17.284 16.7247 17.3305 16.5908 17.4233L14.8502 18.6307V8.42496ZM1.5625 6.86246V1.6709H13.2877V6.86246H1.5625ZM13.2877 8.42496V10.539H3.4382V8.42496H13.2877ZM21.2149 22.5448V36.329H3.4382V12.1014H13.2877V20.1235C13.2877 20.4142 13.4491 20.6808 13.7067 20.8157C13.9643 20.9505 14.2755 20.9311 14.5143 20.7654L17.0362 19.0161L19.5548 20.7622C19.8226 20.9478 20.1774 20.9478 20.4451 20.7622L22.9638 19.0161L25.4857 20.7654C25.6189 20.8578 25.7746 20.9047 25.931 20.9047C26.0549 20.9047 26.1794 20.8752 26.2932 20.8157C26.5508 20.6808 26.7122 20.4142 26.7122 20.1235V12.1014H30.1389C30.5703 12.1014 30.9202 11.7517 30.9202 11.3202C30.9202 10.8887 30.5703 10.5389 30.1389 10.5389H26.7122V8.42488H36.5617V21.7636H21.9962C21.5648 21.7636 21.2149 22.1133 21.2149 22.5448ZM36.5618 36.329H22.7774V23.326H36.5618V36.329ZM38.4375 6.86246H26.7123V1.6709H38.4375V6.86246Z" fill="#333333"/>
<path d="M35.2022 28.1531C35.0264 26.4143 33.6157 25.1064 31.9102 25.1064C31.0804 25.1064 30.328 25.4402 29.7588 26.0346C29.1429 25.4603 28.3091 25.1064 27.4637 25.1064C25.7731 25.1064 24.4729 26.3579 24.2935 28.1534C24.27 28.3123 24.236 28.7334 24.3899 29.3536C24.6228 30.2903 25.1567 31.1391 25.9397 31.8131L29.1957 34.5604C29.3537 34.695 29.5507 34.7622 29.7477 34.7622C29.9445 34.7622 30.1413 34.6952 30.2993 34.561L33.5614 31.8083C34.3388 31.1398 34.8727 30.291 35.1056 29.3536C35.2598 28.7331 35.2255 28.3118 35.2022 28.1531ZM33.5891 28.9768C33.4348 29.5981 33.0729 30.1675 32.5481 30.6189L29.7477 32.9819L26.9531 30.6239C26.4225 30.1671 26.0606 29.5976 25.9063 28.9768C25.8248 28.6482 25.8334 28.4464 25.8375 28.3959C25.8453 28.3653 25.8428 28.3653 25.8465 28.3251C25.9237 27.5007 26.4536 26.6688 27.4636 26.6688C28.1313 26.6688 28.8092 27.1033 29.0753 27.7019C29.2008 27.9839 29.4806 28.1657 29.7892 28.1657C29.7892 28.1657 29.7893 28.1657 29.7894 28.1657C30.0981 28.1657 30.3779 27.9839 30.5032 27.7017C30.6746 27.316 31.0852 26.6689 31.9102 26.6689C32.8279 26.6689 33.5592 27.3654 33.6491 28.3252C33.6528 28.3653 33.6502 28.3653 33.6581 28.3959C33.6621 28.4464 33.6708 28.6482 33.5891 28.9768Z" fill="#333333"/>
</svg>

<svg width="42" height="38" fill="none" xmlns="http://www.w3.org/2000/svg"><path d="M36.033 11.168a.815.815 0 00-.116-.281.744.744 0 00-.217-.216.788.788 0 00-.586-.116.735.735 0 00-.281.116.772.772 0 00-.348.65.767.767 0 00.06.298.773.773 0 00.57.467.773.773 0 00.802-.332.78.78 0 00.116-.586z" fill="#fff"/><path d="M41.219.108H2.78A.781.781 0 002 .89v6.754c0 .431.35.781.781.781h1.095V37.11c0 .432.35.782.781.782h34.686c.431 0 .781-.35.781-.782V8.425h1.095c.431 0 .781-.35.781-.781V.89a.781.781 0 00-.781-.782zM16.85 1.671h10.3v5.191h-10.3V1.671zm0 6.754h10.3v10.206l-1.74-1.208a.781.781 0 00-.891 0L22 19.17l-2.519-1.747a.78.78 0 00-.89 0l-1.74 1.208V8.425zM3.562 6.862V1.671h11.726v5.191H3.562zm11.726 1.563v2.114h-9.85V8.425h9.85zm7.927 14.12v13.784H5.438V12.101h9.85v8.022a.781.781 0 001.226.642l2.522-1.749 2.519 1.746a.781.781 0 00.89 0l2.519-1.746 2.522 1.75a.78.78 0 001.226-.642V12.1h3.427a.781.781 0 100-1.562h-3.427V8.425h9.85v13.339H23.996a.781.781 0 00-.781.78zm15.347 13.784H24.777V23.326h13.785v13.003zm1.876-29.467H28.712V1.671h11.726v5.191z" fill="#fff"/><path d="M37.202 28.153c-.176-1.739-1.586-3.047-3.292-3.047-.83 0-1.582.334-2.151.929-.616-.575-1.45-.929-2.295-.929-1.69 0-2.991 1.252-3.17 3.047-.024.16-.058.58.096 1.2.233.937.767 1.786 1.55 2.46l3.256 2.747a.85.85 0 00.552.202.85.85 0 00.551-.201l3.262-2.753c.778-.668 1.312-1.517 1.545-2.454.154-.62.12-1.042.096-1.2zm-1.613.824c-.154.621-.516 1.19-1.04 1.642l-2.801 2.363-2.795-2.358c-.53-.457-.892-1.026-1.047-1.647a1.9 1.9 0 01-.069-.581c.008-.03.006-.03.01-.07.077-.825.607-1.657 1.617-1.657.667 0 1.345.434 1.611 1.033a.781.781 0 001.428 0c.172-.386.582-1.033 1.407-1.033.918 0 1.65.696 1.74 1.656.003.04 0 .04.008.07a1.9 1.9 0 01-.069.582z" fill="#fff"/><path d="M34.033 11.168a.815.815 0 00-.116-.281.744.744 0 00-.217-.216.788.788 0 00-.586-.116.735.735 0 00-.281.116.772.772 0 00-.348.65.767.767 0 00.06.298.773.773 0 00.57.467.773.773 0 00.802-.332.78.78 0 00.116-.586z" fill="#333"/><path d="M39.219.108H.78A.781.781 0 000 .89v6.754c0 .431.35.781.781.781h1.095V37.11c0 .432.35.782.781.782h34.686c.431 0 .781-.35.781-.782V8.425h1.095c.431 0 .781-.35.781-.781V.89a.781.781 0 00-.781-.782zM14.85 1.671h10.3v5.191h-10.3V1.671zm0 6.754h10.3v10.206l-1.74-1.208a.781.781 0 00-.891 0L20 19.17l-2.519-1.747a.78.78 0 00-.89 0l-1.74 1.208V8.425zM1.563 6.862V1.671h11.725v5.191H1.562zm11.725 1.563v2.114h-9.85V8.425h9.85zm7.927 14.12v13.784H3.438V12.101h9.85v8.022a.781.781 0 001.226.642l2.522-1.749 2.519 1.746a.781.781 0 00.89 0l2.519-1.746 2.522 1.75a.78.78 0 001.226-.642V12.1h3.427a.781.781 0 100-1.562h-3.427V8.425h9.85v13.339H21.996a.781.781 0 00-.781.78zm15.347 13.784H22.777V23.326h13.785v13.003zm1.876-29.467H26.712V1.671h11.726v5.191z" fill="#333"/><path d="M35.202 28.153c-.176-1.739-1.586-3.047-3.292-3.047-.83 0-1.582.334-2.151.929-.616-.575-1.45-.929-2.295-.929-1.69 0-2.991 1.252-3.17 3.047-.024.16-.058.58.096 1.2.233.937.767 1.786 1.55 2.46l3.256 2.747a.85.85 0 00.552.202.85.85 0 00.551-.201l3.262-2.753c.778-.668 1.312-1.517 1.545-2.454.154-.62.12-1.042.096-1.2zm-1.613.824c-.154.621-.516 1.19-1.04 1.642l-2.801 2.363-2.795-2.358c-.53-.457-.892-1.026-1.047-1.647a1.9 1.9 0 01-.069-.581c.008-.03.006-.03.01-.07.077-.825.607-1.657 1.617-1.657.667 0 1.345.434 1.611 1.033a.781.781 0 001.428 0c.172-.386.582-1.033 1.407-1.033.918 0 1.65.696 1.74 1.656.003.04 0 .04.008.07a1.9 1.9 0 01-.069.582z" fill="#333"/></svg>
